X: 0
T: Siriul
O: Romania
R:
Z: 2018 John Chambers <jc:trillian.mit.edu>
L: 1/8
M: 3/4
Q: 1/8=80
K: EM
|: e2 d2 e2 | fe d2 e2 | fe d2 c2 | BA G2 A2 | BG A2 F2 | E6 :|
|: E2 E2 D2 | EF G2 A2 | B2 c2 B2 | BA G2 A2 | BG A2 F2 | E6 :|
